src/pos-icons/not-equal-variant.svg

<svg height="24" viewBox="0 0 24 24" width="24" xmlns="http://www.w3.org/2000/svg"><path d="m14.08 4.61 1.84.79-1.12 2.6h4.2v2h-5.05l-1.72 4h6.77v2h-7.62l-1.46 3.4-1.84-.79 1.12-2.61h-4.2v-2h5.06l1.71-4h-6.77v-2h7.63z"/></svg>

<?xml version="1.0" encoding="UTF-8"?><!DOCTYPE svg PUBLIC "-//W3C//DTD SVG 1.1//EN" "http://www.w3.org/Graphics/SVG/1.1/DTD/svg11.dtd"><svg xmlns="http://www.w3.org/2000/svg" xmlns:xlink="http://www.w3.org/1999/xlink" version="1.1" id="mdi-not-equal-variant" width="24" height="24" viewBox="0 0 24 24"><path d="M14.08,4.61L15.92,5.4L14.8,8H19V10H13.95L12.23,14H19V16H11.38L9.92,19.4L8.08,18.61L9.2,16H5V14H10.06L11.77,10H5V8H12.63L14.08,4.61Z" /></svg>
